src/mute.svg

<svg viewBox="0 0 16 16" fill="none" xmlns="http://www.w3.org/2000/svg"><path fill-rule="evenodd" clip-rule="evenodd" d="M1.32001 5H3.85001L6.69001 2.72L8.32001 1.41V14.59L6.69001 13.28L3.85001 11H1.32001V5ZM4.21001 10L7.32001 12.5V3.5L4.21001 6H2.32001V10H4.21001ZM13.98 5.64999L14.68 6.34999L13 7.99999L14.7 9.64999L14 10.35L12.35 8.70999L10.7 10.35L10 9.64999L11.61 7.99999L9.98001 6.34999L10.68 5.64999L12.32 7.28999L13.98 5.64999Z" fill="#111111"/></svg>

<svg viewBox="0 0 16 16" fill="none" xmlns="http://www.w3.org/2000/svg"><path fill-rule="evenodd" clip-rule="evenodd" d="M1.32 5h2.53l2.84-2.28 1.63-1.31v13.18l-1.63-1.31L3.85 11H1.32V5Zm2.89 5 3.11 2.5v-9L4.21 6H2.32v4h1.89Zm9.77-4.35.7.7L13 8l1.7 1.65-.7.7-1.65-1.64-1.65 1.64-.7-.7L11.61 8 9.98 6.35l.7-.7 1.64 1.64 1.66-1.64Z" fill="#111111"/></svg>
